public/assets/img/program1-1.svg

<svg width="40" height="30" viewBox="0 0 40 30" fill="none" xmlns="http://www.w3.org/2000/svg">
<path d="M39.8126 8.19124L32.0549 0.433396C31.8054 0.183866 31.401 0.183866 31.1514 0.433396L27.2725 4.31228C27.1527 4.43204 27.0854 4.59454 27.0854 4.764C27.0854 4.93345 27.1527 5.09595 27.2725 5.21571L27.6594 5.60266L26.7702 6.49172C26.193 7.06875 25.2973 7.22625 24.5415 6.8832C23.8329 6.56156 23.0452 6.39164 22.2633 6.39164C21.3349 6.39164 20.4277 6.62469 19.6216 7.06609C19.2854 6.98328 18.9404 6.94086 18.592 6.94086C18.0881 6.94086 17.5932 7.02781 17.121 7.19945C16.367 7.47336 15.5588 7.30359 15.0114 6.75633L13.4147 5.15962L13.6049 4.96946C13.7247 4.8497 13.7919 4.6872 13.7919 4.51775C13.7919 4.34829 13.7247 4.1858 13.6049 4.06603L9.72602 0.187147C9.47641 -0.0623824 9.07204 -0.0623824 8.82251 0.187147L0.187089 8.82257C-0.0623629 9.0721 -0.0623629 9.47655 0.187089 9.726L4.06589 13.6049C4.18574 13.7247 4.34816 13.792 4.51769 13.792C4.68722 13.792 4.84956 13.7247 4.96948 13.6049L5.20081 13.3736L6.3269 14.4996C6.61104 14.7838 6.79939 15.1385 6.8715 15.5255C7.24541 17.532 8.20634 19.3561 9.65039 20.8009L9.8625 21.013C9.45516 21.442 9.2311 22.0009 9.2311 22.5947C9.2311 23.2088 9.47032 23.7862 9.90453 24.2205C10.3528 24.6688 10.9415 24.8929 11.5304 24.8929C11.5687 24.8929 11.6069 24.8918 11.6453 24.8899C11.6142 25.5164 11.8373 26.1532 12.3147 26.6307C12.749 27.065 13.3264 27.3041 13.9405 27.3041C13.9576 27.3041 13.9747 27.3032 13.9918 27.3028C13.9786 27.9082 14.202 28.5178 14.6629 28.9789C15.0972 29.4132 15.6747 29.6523 16.2889 29.6523C16.903 29.6523 17.4803 29.4131 17.9147 28.9789C17.9513 28.9423 17.9857 28.9045 18.0194 28.8662C18.2456 28.945 18.4848 28.987 18.7266 28.987C19.301 28.987 19.8407 28.7632 20.2454 28.3571C20.4608 28.1418 20.6242 27.8885 20.7306 27.6127L20.796 27.6781C21.2147 28.0968 21.7646 28.3061 22.3145 28.3061C22.8645 28.3061 23.4144 28.0968 23.833 27.6781C24.0555 27.4556 24.2227 27.1928 24.3287 26.9064C24.7034 27.1789 25.1471 27.3154 25.591 27.3154C26.1409 27.3154 26.6912 27.1061 27.1102 26.6876C27.5158 26.2821 27.7391 25.7425 27.7391 25.1685C27.7391 24.9951 27.7183 24.825 27.6787 24.6605C28.0879 24.5774 28.4638 24.3765 28.7654 24.0745C29.171 23.669 29.3943 23.1297 29.3943 22.556C29.3943 22.1041 29.2551 21.6738 28.998 21.313L29.5105 20.8005C30.9714 19.339 31.9364 17.492 32.3015 15.4591C32.3627 15.1187 32.5313 14.8025 32.7892 14.5445L34.6953 12.6384L35.0304 12.9735C35.1552 13.0982 35.3187 13.1606 35.4822 13.1606C35.6456 13.1606 35.8092 13.0982 35.934 12.9735L39.8129 9.0946C39.9326 8.97483 39.9999 8.81233 39.9999 8.64288C39.9999 8.47343 39.9324 8.31108 39.8126 8.19124ZM4.51769 12.2498L1.54224 9.27436L9.27415 1.54245L12.2497 4.5179L4.51769 12.2498ZM12.2527 23.3172C11.8545 23.7154 11.2065 23.7155 10.808 23.3172C10.615 23.1242 10.5087 22.8677 10.5087 22.5948C10.5087 22.322 10.6151 22.0655 10.808 21.8725C11.0072 21.6734 11.2687 21.5737 11.5303 21.5737C11.7919 21.5737 12.0536 21.6734 12.2526 21.8725C12.6509 22.2708 12.6509 22.9189 12.2527 23.3172ZM14.6627 25.7272C14.4699 25.9203 14.2134 26.0265 13.9404 26.0265C13.6676 26.0265 13.411 25.9201 13.2181 25.7272C12.8197 25.329 12.8197 24.6808 13.2181 24.2825C13.4172 24.0833 13.6787 23.9837 13.9404 23.9837C14.2019 23.9837 14.4636 24.0833 14.6627 24.2825C15.0611 24.6808 15.0611 25.329 14.6627 25.7272ZM17.011 28.0754C16.818 28.2684 16.5615 28.3746 16.2887 28.3746C16.0158 28.3746 15.7593 28.2683 15.5664 28.0754C15.168 27.6771 15.168 27.029 15.5664 26.6307C15.7655 26.4315 16.027 26.3319 16.2887 26.3319C16.5502 26.3319 16.8119 26.4315 17.011 26.6307C17.4093 27.029 17.4093 27.6771 17.011 28.0754ZM27.8615 23.1714C27.6973 23.3358 27.479 23.4263 27.2468 23.4263C27.0146 23.4263 26.7962 23.3358 26.6317 23.171L20.4341 16.9748C20.1844 16.7253 19.78 16.7254 19.5306 16.9749C19.2812 17.2244 19.2813 17.6289 19.5307 17.8784L26.2065 24.5535C26.3708 24.7177 26.4612 24.9361 26.4612 25.1685C26.4612 25.4013 26.3708 25.62 26.2068 25.784C25.8672 26.1232 25.3149 26.1233 24.9759 25.7842L23.8496 24.6579C23.8434 24.6515 23.8373 24.6449 23.8308 24.6385C23.8289 24.6366 23.8268 24.635 23.8248 24.6331L18.6478 19.456C18.3982 19.2066 17.9938 19.2066 17.7443 19.456C17.4947 19.7055 17.4947 20.11 17.7443 20.3595L22.938 25.5531C23.0967 25.7158 23.1841 25.9311 23.1841 26.1596C23.1841 26.3919 23.0936 26.6104 22.9294 26.7746C22.5905 27.1137 22.0387 27.1137 21.6995 26.7746L16.0679 21.1429C15.8182 20.8934 15.4139 20.8934 15.1643 21.1429C14.9148 21.3923 14.9148 21.7969 15.1643 22.0463L19.3389 26.2209C19.34 26.2221 19.341 26.2234 19.3422 26.2245C19.5064 26.3883 19.5967 26.6064 19.5967 26.8385C19.5967 27.0707 19.5062 27.2892 19.3413 27.4541C19.1773 27.6185 18.959 27.709 18.7264 27.709C18.6703 27.709 18.6153 27.7032 18.5616 27.6931C18.665 26.9968 18.4494 26.2618 17.9146 25.7269C17.4803 25.2927 16.9029 25.0535 16.2887 25.0535C16.2716 25.0535 16.2546 25.0543 16.2375 25.0547C16.2506 24.4493 16.0273 23.8397 15.5663 23.3787C15.1319 22.9445 14.5546 22.7053 13.9404 22.7053C13.9019 22.7053 13.8637 22.7062 13.8256 22.7081C13.8563 22.082 13.6332 21.4458 13.1561 20.9686C12.5753 20.3879 11.7589 20.1839 11.012 20.3555L10.5539 19.8974C9.29297 18.6359 8.45407 17.0431 8.12759 15.2912C8.00798 14.6496 7.69775 14.0633 7.23049 13.596L6.10432 12.4698L12.5113 6.06282L14.108 7.65953C14.7218 8.27327 15.5574 8.60171 16.4132 8.60171C16.7965 8.60171 17.1841 8.53577 17.5575 8.40007C17.7386 8.33421 17.9258 8.28694 18.1156 8.25694L14.16 12.2126C13.676 12.6965 13.4094 13.34 13.4094 14.0244C13.4094 14.7088 13.676 15.3522 14.1599 15.8361C14.6594 16.3356 15.3154 16.5853 15.9716 16.5853C16.6277 16.5853 17.2839 16.3354 17.7835 15.8361L19.7702 13.8494L20.3079 14.3875C20.3078 14.3874 20.3081 14.3877 20.3079 14.3875L20.3521 14.4318C20.352 14.4317 20.3522 14.4318 20.3521 14.4318L20.3529 14.4325C20.3591 14.4385 20.3651 14.4443 20.3711 14.4501L27.8618 21.9408C28.0261 22.105 28.1165 22.3234 28.1165 22.5558C28.1165 22.7885 28.0261 23.0069 27.8615 23.1714ZM31.8855 13.6411C31.4422 14.0845 31.1511 14.6351 31.0438 15.2334C30.725 17.0084 29.8823 18.6212 28.6068 19.8973L28.1159 20.3883L24.0744 16.3468C24.1623 16.3533 24.2505 16.3576 24.3393 16.3576C24.7485 16.3576 25.1673 16.2859 25.5841 16.1153C25.9107 15.9817 26.0671 15.6087 25.9335 15.2822C25.7999 14.9557 25.4272 14.7993 25.1004 14.9328C23.4562 15.6056 21.4849 13.7516 21.2655 13.5379C21.2618 13.5343 21.2581 13.5308 21.2544 13.5274L21.2317 13.5047C21.2318 13.5048 21.2317 13.5046 21.2317 13.5047L21.2117 13.4849C21.2119 13.485 21.2117 13.4848 21.2117 13.4849L20.6735 12.9464L21.2834 12.3365C21.533 12.0869 21.533 11.6825 21.2835 11.4329C21.0339 11.1836 20.6295 11.1835 20.38 11.4329L19.3199 12.4931C19.3195 12.4935 19.319 12.4939 19.3186 12.4943C19.3182 12.4947 19.3178 12.4951 19.3174 12.4955L16.88 14.933C16.379 15.4339 15.5642 15.4337 15.0634 14.933C14.8208 14.6904 14.6872 14.3678 14.6872 14.0247C14.6872 13.6816 14.8208 13.359 15.0635 13.1164L19.2707 8.90913C19.5047 8.67515 19.7649 8.46929 20.0445 8.29687C20.7088 7.88624 21.476 7.66921 22.2633 7.66921C22.8643 7.66921 23.4695 7.79968 24.0135 8.04663C25.2512 8.60819 26.7222 8.34655 27.6737 7.39523L28.563 6.5061L33.7918 11.7349L31.8855 13.6411ZM35.482 11.6185L28.6276 4.76415L31.6032 1.7887L38.4575 8.64304L35.482 11.6185Z" fill="#ACBDCE"/>
<path d="M36.1256 9.77035C36.4784 9.77035 36.7644 9.48434 36.7644 9.13152C36.7644 8.77871 36.4784 8.4927 36.1256 8.4927C35.7728 8.4927 35.4868 8.77871 35.4868 9.13152C35.4868 9.48434 35.7728 9.77035 36.1256 9.77035Z" fill="#ACBDCE"/>
<path d="M4.18491 10.4015C4.53773 10.4015 4.82374 10.1155 4.82374 9.7627C4.82374 9.40988 4.53773 9.12387 4.18491 9.12387C3.8321 9.12387 3.54609 9.40988 3.54609 9.7627C3.54609 10.1155 3.8321 10.4015 4.18491 10.4015Z" fill="#ACBDCE"/>
</svg>

<svg width="40" height="30" fill="none" xmlns="http://www.w3.org/2000/svg"><path d="M39.813 8.191 32.055.433a.639.639 0 0 0-.904 0l-3.878 3.88a.639.639 0 0 0 0 .903l.386.387-.889.889a1.997 1.997 0 0 1-2.229.391 5.55 5.55 0 0 0-2.278-.491c-.928 0-1.835.233-2.641.674a4.301 4.301 0 0 0-2.501.133c-.754.274-1.562.105-2.11-.443L13.415 5.16l.19-.19a.639.639 0 0 0 0-.904L9.726.187a.639.639 0 0 0-.903 0L.187 8.823a.639.639 0 0 0 0 .903l3.879 3.879a.639.639 0 0 0 .903 0l.232-.231L6.327 14.5c.284.284.472.639.545 1.025a10.032 10.032 0 0 0 2.778 5.276l.213.212a2.283 2.283 0 0 0-.632 1.582c0 .614.24 1.191.674 1.626a2.292 2.292 0 0 0 1.74.669 2.294 2.294 0 0 0 2.296 2.414l.05-.001a2.293 2.293 0 0 0 2.298 2.35 2.285 2.285 0 0 0 1.73-.787 2.13 2.13 0 0 0 2.226-.51 2.14 2.14 0 0 0 .486-.743l.065.065a2.14 2.14 0 0 0 1.518.628 2.14 2.14 0 0 0 2.015-1.4c.374.273.818.41 1.262.41a2.143 2.143 0 0 0 2.148-2.147c0-.174-.02-.344-.06-.509a2.13 2.13 0 0 0 1.086-.585c.406-.406.63-.945.63-1.519 0-.452-.14-.882-.397-1.243l.512-.512a10.028 10.028 0 0 0 2.791-5.342c.062-.34.23-.656.488-.915l1.906-1.906.335.335a.637.637 0 0 0 .904 0l3.879-3.878a.64.64 0 0 0 0-.904ZM4.518 12.25 1.542 9.274l7.732-7.732 2.976 2.976-7.732 7.732Zm7.735 11.067a1.023 1.023 0 0 1-1.744-.722 1.019 1.019 0 0 1 1.744-.722 1.023 1.023 0 0 1 0 1.444Zm2.41 2.41c-.193.193-.45.3-.723.3a1.023 1.023 0 1 1 .722-1.744 1.023 1.023 0 0 1 0 1.444Zm2.348 2.348c-.193.193-.45.3-.722.3a1.023 1.023 0 1 1 .722-1.744 1.023 1.023 0 0 1 0 1.444Zm10.85-4.904a.863.863 0 0 1-.614.255.863.863 0 0 1-.615-.255l-6.198-6.196a.639.639 0 1 0-.903.903l6.675 6.675a.864.864 0 0 1 .255.616.872.872 0 0 1-1.485.616l-1.126-1.127-.02-.02-.005-.005-5.177-5.177a.639.639 0 0 0-.904.904l5.194 5.193a.863.863 0 0 1 .246.607.87.87 0 0 1-1.485.615l-5.631-5.632a.639.639 0 0 0-.904.903l4.175 4.175.003.003a.865.865 0 0 1 0 1.23.862.862 0 0 1-.78.24 2.297 2.297 0 0 0-2.273-2.64h-.052a2.292 2.292 0 0 0-.67-1.675 2.285 2.285 0 0 0-1.741-.67 2.294 2.294 0 0 0-2.814-2.354l-.458-.458a8.759 8.759 0 0 1-2.426-4.606 3.227 3.227 0 0 0-.898-1.695L6.104 12.47l6.407-6.407 1.597 1.597c.614.613 1.45.942 2.305.942.384 0 .771-.066 1.145-.202.18-.066.368-.113.558-.143l-3.956 3.956a2.545 2.545 0 0 0-.75 1.811c0 .685.266 1.328.75 1.812.5.5 1.155.75 1.812.75.656 0 1.312-.25 1.812-.75l1.986-1.987.538.538.044.045.02.018 7.49 7.49a.864.864 0 0 1 .255.616c0 .232-.09.45-.256.615Zm4.024-9.53a2.996 2.996 0 0 0-.841 1.592 8.757 8.757 0 0 1-2.437 4.664l-.491.491-4.042-4.041a3.259 3.259 0 0 0 1.51-.232.639.639 0 1 0-.484-1.182c-1.644.673-3.615-1.181-3.835-1.395a.536.536 0 0 0-.01-.01l-.023-.023-.02-.02-.538-.539.61-.61a.639.639 0 1 0-.904-.903l-1.06 1.06-.001.001-.002.002-2.437 2.437a1.286 1.286 0 0 1-2.193-.908c0-.343.134-.666.377-.909L19.27 8.91a4.215 4.215 0 0 1 2.993-1.24c.6 0 1.206.13 1.75.378 1.237.561 2.708.3 3.66-.652l.889-.889 5.229 5.229-1.907 1.906Zm3.597-2.023-6.854-6.854 2.975-2.975 6.855 6.854-2.976 2.975Z" fill="#ACBDCE"/><path d="M36.126 9.77a.639.639 0 1 0 0-1.277.639.639 0 0 0 0 1.277ZM4.185 10.402a.639.639 0 1 0 0-1.278.639.639 0 0 0 0 1.277Z" fill="#ACBDCE"/></svg>
